!!!!SEGMENT: pl-wn--mus-8171_zelenski-wladyslaw--kantata-na-czesc-jozefa-szujskiego.krn
!!!cenid: 18xx:3666
!!!COM: Żeleński, Władysław
!!!COM-rismid: pe41024455
!!!CDT:
!!!CNT:
!!!OTL: Kantata na cześć Józefa Szujskiego
!!!PDT:
!!!AGN:
!!!SMS-siglum: PL-Wn
!!!SMS-shelfmark: Mus.8171
!!!SMS-shelfwork: W
!!!SMS-variant:
!!!SMS-altvar:
!!!NIFC-rismid:
!!!URL-scan: https://polona.pl/item/kantata-na-czesc-jozefa-szujskiego-chor-meski-wykonana-po-raz-iszy-przy,NDU5Mzc1NTU/0/#info:metadata
!!!ONB-nifc:
!!!AIN: 2 bass 2 tenor
!!!key: E-
!!!OMD: Moderato.
**kern	**text	**dynam	**kern	**text	**dynam	**kern	**text	**dynam	**kern	**text	**dynam
*group2	*	*	*group2	*	*	*group1	*	*	*group1	*	*
*part4	*part4	*part4	*part3	*part3	*part3	*part2	*part2	*part2	*part1	*part1	*part1
*staff4	*staff4	*	*staff3	*staff3	*	*staff2	*staff2	*	*staff1	*staff1	*
*""Bassy	*	*	*""Bassy	*	*	*""Tenory	*	*	*""Tenory	*	*
*I"IIdo	*	*	*I"Im	*	*	*I"II.do	*	*	*I"I.mo	*	*
*Ibass	*	*	*Ibass	*	*	*Itenor	*	*	*Itenor	*	*
*ICvox	*	*	*ICvox	*	*	*ICvox	*	*	*ICvox	*	*
*IGcoro	*	*	*IGcoro	*	*	*IGcoro	*	*	*IGcoro	*	*
*clefF4	*	*	*clefF4	*	*	*clefG2	*	*	*clefG2	*	*
*	*	*	*	*	*	*ITrd8c12	*	*	*ITrd8c12	*	*
*k[b-e-a-]	*	*	*k[b-e-a-]	*	*	*k[b-e-a-]	*	*	*k[b-e-a-]	*	*
*E-:	*	*	*E-:	*	*	*E-:	*	*	*E-:	*	*
*M4/4	*	*	*M4/4	*	*	*M4/4	*	*	*M4/4	*	*
*met(c)	*	*	*met(c)	*	*	*met(c)	*	*	*met(c)	*	*
*all\right	*	*	*all\right	*	*	*all\right	*	*	*all\right	*	*
*	*	*below	*	*	*below	*	*	*below	*	*	*below
!LO:TX:b:t=poco marcato	!	!	!LO:TX:a:t=po-co marcato.	!	!	!	!	!	!	!	!
4B-\	.	mf	4B-\	W od-	mf	4r	.	.	4r	.	.
=1	=1	=1	=1	=1	=1	=1	=1	=1	=1	=1	=1
4B-\	.	.	4B-\	-le-	.	1r	.	.	1r	.	.
4G\	.	.	4G\	-głą	.	.	.	.	.	.	.
4E-\	.	.	4E-\	wie-	.	.	.	.	.	.	.
8E-\	.	.	8E-\	-ków	.	.	.	.	.	.	.
8F\	.	.	8F\	za-	.	.	.	.	.	.	.
=2	=2	=2	=2	=2	=2	=2	=2	=2	=2	=2	=2
4.G\	.	.	4.G\	-pat-	.	2r	.	.	2r	.	.
8A-\	.	.	8A-\	-rzon	.	.	.	.	.	.	.
4B-\	.	.	4B-\	dal	.	4r	.	.	4r	.	.
8B-\L	.	p	4B-\	I	p	4B-\	.	p	4B-\	I	p
8A-\J	.	.	.	.	.	.	.	.	.	.	.
=3	=3	=3	=3	=3	=3	=3	=3	=3	=3	=3	=3
8G\L	.	.	8B-\L	wiel-	.	4B-\	.	.	4B-\	wiel-	.
8F\J	.	<	8A-\J	.	.	.	.	<	.	.	.
!	!	!	!	!	!LO:HP:a	!	!	!	!	!	!LO:HP:a
8E-\L	.	.	4G\	-kich	<	4B-\	.	.	4e-\	-kich	<
8D\J	.	.	.	.	.	.	.	.	.	.	.
4C/	.	.	4G\	oj-	.	4B-\	.	.	8e-\L	oj-	.
.	.	.	.	.	.	.	.	.	8d\J	.	.
8C/	.	[	8F\	-ców	.	8An/	.	.	8f\	-ców	.
8C/	.	>	8F\	przy-	[	8A/	.	[	8e-\	przy-	[
!!LO:LB:g=original
=4	=4	=4	=4	=4	=4	=4	=4	=4	=4	=4	=4
!	!	!	!	!	!LO:HP:a	!	!	!	!	!	!LO:HP:a
2BB-/	.	]]	(4.F\	-kła-	>	2A-X/	.	>	(4.d\	-kła-	>
.	.	.	8E-\)	.	.	.	.	.	8c\)	.	.
4BB-/	.	.	4D\	-dy,	]	4A-/	.	.	4B-\	-dy	.
4B-\	.	mf	4B-\	Jak	mf	4r	.	]	4r	.	]
=5	=5	=5	=5	=5	=5	=5	=5	=5	=5	=5	=5
4B-\	.	.	4B-\	ska-	.	1r	.	.	1r	.	.
4G\	.	.	4G\	-ła	.	.	.	.	.	.	.
4E-\	.	.	4E-\	trwał	.	.	.	.	.	.	.
8E-\L	.	.	8E-\L	wśród	.	.	.	.	.	.	.
8F\J	.	.	8F\J	.	.	.	.	.	.	.	.
=6	=6	=6	=6	=6	=6	=6	=6	=6	=6	=6	=6
4.G\	.	.	4.G\	ży-	.	2r	.	.	2r	.	.
8A-\	.	.	8A-\	-cia	.	.	.	.	.	.	.
4c\Z	.	.	4c\Z	fal,	.	4r	.	.	4r	.	.
8c\L	.	p	4c\	Choć	p	4c\	.	p	4c\	Choć	p
8B-\J	.	.	.	.	.	.	.	.	.	.	.
=7	=7	=7	=7	=7	=7	=7	=7	=7	=7	=7	=7
8A-\L	.	.	8c\L	zie-	.	4c\	.	.	4c\	zie-	.
!	!	!	!	!	!LO:HP:a	!	!	!	!	!	!
8G\J	.	.	8B-\J	.	<	.	.	.	.	.	.
!	!	!	!	!	!	!	!	!	!	!	!LO:HP:a
8F\L	.	.	4A-\	-mi	.	4c\	.	<	4f\	-mi	<
8E-\J	.	.	.	.	.	.	.	.	.	.	.
4D\	.	.	4A-\	drza-	.	4c\	.	.	8f\L	drza-	.
.	.	.	.	.	.	.	.	.	8en\J	.	.
8D-X/	.	.	8G\	-ły	[	8Bn/	.	.	8g\	-ły	[
8D-/	.	.	8G\	po-	.	8B/	.	[	8f\	po-	.
!!LO:LB:g=original
=8	=8	=8	=8	=8	=8	=8	=8	=8	=8	=8	=8
4C/	.	.	4G\	-sa-	.	4c\	.	.	4en\	-sa-	.
*2\right	*	*	*2\right	*	*	*2\right	*	*	*2\right	*	*
2c\	.	f	2c^\	-dy	f	2c\	.	f	2c\	-dy	f
4r	.	.	4c\	Choć	p	4r	.	.	4r	.	.
=9	=9	=9	=9	=9	=9	=9	=9	=9	=9	=9	=9
1r	.	.	4c\	ból	.	4r	.	.	4r	.	.
!	!	!	!	!	!	!LO:TX:b:i:t=dolce.	!	!	!LO:TX:a:i:t=dolce.	!	!
.	.	.	4A-\	niez-	.	8c\L	.	.	4c\	Choć	.
.	.	.	.	.	.	8B-\J	.	.	.	.	.
.	.	.	4F\	-mier-	.	4A-/	.	.	4f\	ból	.
.	.	.	8F\L	-ny	.	8A-/	.	.	8e-\	ser-	.
.	.	.	8G\J	.	.	8B-/	.	.	8d-X\	-ce	.
=10	=10	=10	=10	=10	=10	=10	=10	=10	=10	=10	=10
8r	.	.	4.A-\	ser-	.	[2A-/	.	.	[2c\	rwał	.
!	!	!LO:HP:a	!	!	!	!	!	!	!	!	!
8C/	Choć	p <	.	.	.	.	.	.	.	.	.
8F\	ból	.	.	.	.	.	.	.	.	.	.
8G\	niez-	.	8B-\	-ce	.	.	.	.	.	.	.
8A-\	-mier-	.	4c\	rwał	.	8A-/]	.	.	8c\]	.	.
8G\	-ny	[[	.	.	.	8r	.	.	8r	.	.
!	!	!LO:HP:a	!	!	!	!	!	!	!	!	!
8.B-\	ser-	>	4c\	I	.	4r	.	.	4r	.	.
16A-\	-ce	.	.	.	.	.	.	.	.	.	.
=11	=11	=11	=11	=11	=11	=11	=11	=11	=11	=11	=11
4A-\	rwał	]	4c\	sro-	.	4r	.	.	4r	.	.
!	!	!	!	!	!LO:HP:a	!	!	!LO:HP:a	!	!	!LO:HP:a
4r	.	.	4A-\	-gie	<	8c\L	.	<	4c\	Choć	<
.	.	.	.	.	.	8B-\J	.	.	.	.	.
2r	.	.	4F\	bu-	.	8A-\L	.	.	4c\	ból	.
.	.	.	.	.	.	8B-\J	.	.	.	.	.
.	.	.	8F\	-dził	.	8c\	.	.	8a-\	ser-	.
.	.	.	8G\	zwąt-	.	8d-X\	.	.	8f\	-ce	.
!!LO:PB:g=original
=12	=12	=12	=12	=12	=12	=12	=12	=12	=12	=12	=12
8r	.	.	8A-\L	-pie-	.	[2c\	.	.	[2e-\	rwał	.
!	!	!LO:HP:a	!	!	!	!	!	!	!	!	!
8E-\	I	<	8B-\J	.	.	.	.	.	.	.	.
8.A-\	sro-	.	[4c\	-nie	.	.	.	.	.	.	.
16B-\	-gie	.	.	.	.	.	.	.	.	.	.
8c\L	bu-	[[	8c\]	.	.	8c\]	.	.	8e-\]	.	.
8B-\J	.	.	8r	.	.	8r	.	.	8r	.	.
!	!	!LO:HP:a	!	!	!	!	!	!	!	!	!
8.d-X\	-dził	>	4r	.	.	4r	.	.	4r	.	.
16c\	zwąt-	]]	.	.	.	.	.	.	.	.	.
=13	=13	=13	=13	=13	=13	=13	=13	=13	=13	=13	=13
8c\	-pie-	.	8r	.	.	4r	.	.	4r	.	.
!	!	!LO:HP:a	!	!	!	!	!	!	!	!	!
8A-\	-nie	<	8A-\	Niez-	.	.	.	.	.	.	.
!	!	!	!	!	!	!	!	!	!	!	!LO:DY:a
8E-\	Mąż	.	8E-\	-ło-	.	4c\	.	<	4e-\	Nie-	<
!LO:TX:a:t=e molto espress	!	!	!	!	!	!	!	!	!	!	!
8F\	niez-	.	8F\	-mny	.	.	.	.	.	.	.
!	!	!	!	!	!	!LO:TX:b:t=e molto espress.	!	!	!LO:TX:a:t=e molto espress.	!	!
4G\	-łom-	.	4G\	mąż	.	4B-\	.	[	8e-\L	-złom-	[
.	.	.	.	.	.	.	.	.	8dn\J	.	.
8.C/	-ny	.	8.G\	ja-	.	8.An/	.	.	8.f\	-ny	.
16C/	jak	.	16G\	-ko	.	16A/	.	.	16e-\	jak.	.
=14	=14	=14	=14	=14	=14	=14	=14	=14	=14	=14	=14
4.D\	gra-	.	4.F#X\	gra-	.	4.An/	.	.	4.d\	ska-	.
8D\	-nit	.	8An\	-nit	.	8c\	.	.	8d\	-ła	.
4D\	stał.	.	4G\	stał	.	4B-\	.	.	4d\	stał	.
4En\	.	.	4B-\	Roz-	.	4c\	.	.	4g\	Roz-	.
=15	=15	=15	=15	=15	=15	=15	=15	=15	=15	=15	=15
*	*	*^	*	*	*	*	*	*	*	*	*
*	*	*	*	*	*	*	*	*	*	*	*	*^
*	*	*	*	*	*	*^	*	*	*	*	*	*	*
4F\	.	.	.	8B-\L	-pra-	.	.	4d\	.	.	4f\	-pra-	.	.
.	.	.	.	8An\J	.	.	.	.	.	.	.	.	.	.
4F\	.	.	.	8c\L	-szał	.	.	8c\L	.	.	4f\	-szał	.	.
.	.	.	.	8B-\J	.	.	.	8d\J	.	.	.	.	.	.
4F\	.	.	.	4G\	ma-	.	.	4e-\	.	.	4f\	ma-	.	.
!	!	!	!	!LO:TX:t=P:problem=początek diminuenda na górze	!	!	!	!	!	!	!	!	!LO:HP:a	!
8.F\	.	>	.	8.An\	-ry	.	>	8.d\	.	.	8.f\	-ry	>	.
16F\	.	.	.	16A\	i	.	.	16c\	.	.	16e-\	i	.	.
=16	=16	=16	=16	=16	=16	=16	=16	=16	=16	=16	=16	=16	=16	=16
4BB-/	.	.	p	4c\	cie-	p	.	4F/	.	p	4d\	cie-	.	p
4BB-/	.	.	.	4B-\	-nie	.	.	4F/	.	.	4d\	-nie	]	.
4r	.	]	.	4r	.	.	]	2r	.	]	2r	.	.	.
!	!	!LO:DY:rj	!	!	!	!LO:DY:rj	!	!	!	!	!	!	!	!
8BB-/L	.	f	.	8BB-/L	Choć	f	.	.	.	.	.	.	.	.
!	!	!	!	!LO:TX:a:i:t=poco stringendo	!	!	!	!	!	!	!	!	!	!
8C/J	.	.	.	8C/J	.	.	.	.	.	.	.	.	.	.
*	*	*	*	*	*	*	*	*	*	*	*	*	*v	*v
*	*	*	*	*	*	*v	*v	*	*	*	*	*	*
*	*	*v	*v	*	*	*	*	*	*	*	*	*
=17	=17	=17	=17	=17	=17	=17	=17	=17	=17	=17	=17
2.D-X/	.	.	2.D-X/	ból	.	4r	.	.	4r	.	.
!	!	!	!	!	!	!	!	!LO:DY:rj	!	!	!LO:DY:rj
.	.	.	.	.	.	8F/L	.	f	8F/L	Choć	f
!	!	!	!	!	!	!	!	!	!LO:TX:a:i:t=poco stringendo	!	!
.	.	.	.	.	.	8G/J	.	.	8G/J	.	.
.	.	.	.	.	.	[>2A-/	.	.	[>2A-/	ból	.
8C/L	.	.	8C/L	nie-	.	.	.	.	.	.	.
8Dn/J	.	.	8Dn/J	.	.	.	.	.	.	.	.
=18	=18	=18	=18	=18	=18	=18	=18	=18	=18	=18	=18
4E-\	.	.	4E-\	-zmier-	.	4A-/]	.	.	4A-/]	.	.
2E-\	.	.	2E-\	-ny	.	8G/L	.	.	8G/L	niez-	.
.	.	.	.	.	.	8An/J	.	.	8An/J	.	.
.	.	.	.	.	.	4B-\	.	.	4B-\	-mier-	.
8Dn\	.	.	8Dn\	ser-	.	[4B-\	.	.	[4B-\	-ny	.
8En\	.	.	8En\	-ce	.	.	.	.	.	.	.
=19	=19	=19	=19	=19	=19	=19	=19	=19	=19	=19	=19
[2F\	.	.	[2F\	rwał	.	4B-\]	.	.	4B-\]	.	.
.	.	.	.	.	.	8A-X/	.	.	8A-X/	ser-	.
.	.	.	.	.	.	8B-/	.	.	8B-/	-ce	.
8F\]	.	.	8F\]	.	.	[2c\	.	.	[2c\	rwał	.
8F\	.	.	8F\	I	.	.	.	.	.	.	.
8E-\	.	.	8E-\	sro-	.	.	.	.	.	.	.
8F\	.	.	8F\	-gie	.	.	.	.	.	.	.
!!LO:LB:g=original
=20	=20	=20	=20	=20	=20	=20	=20	=20	=20	=20	=20
2.G-X\	.	.	[2G-X\	bu-	.	8c\]	.	.	8c\]	.	.
!	!	!	!	!	!	!LO:TX:b:i:t=marc e poco ritard.	!	!	!LO:TX:a:i:t=marc e poco ritard.	!	!
.	.	<	.	.	<	8c\	.	.	8c\	I	.
.	.	.	.	.	.	8B-\	.	<	8B-\	sro-	<
.	.	.	.	.	.	8An/	.	.	8An/	-gie	.
.	.	.	8G-\L]	.	.	8B-\L	.	.	8B-\L	bu-	.
.	.	.	8A-\J	.	[	8c\J	.	.	8c\J	.	.
8G-\	.	[	8B-\	-dził	.	8d-\	.	.	8d-X\	-dził	.
8G-\	.	.	8B-\	zwąt-	.	8c\	.	[[	8e-\	zwąt-	[[
=21	=21	=21	=21	=21	=21	=21	=21	=21	=21	=21	=21
!	!	!	!	!	!	!	!	!	!	!	!LO:DY:t=ff
4F\	.	ff	4An\	-pie-	ff	4c\	.	ff	4f\	-pie-	ff
2F\	.	.	2A\	-nie	.	2c\	.	.	2f\	-nie	.
8F\L	.	p	4A\	Nie-	p	4c\	.	p	4f\	Nie-	p
8E-\J	.	.	.	.	.	.	.	.	.	.	.
=22	=22	=22	=22	=22	=22	=22	=22	=22	=22	=22	=22
[2.D/	.	<	(4B-\	-złom-	.	(4d\	.	.	([2f\	-zło-	.
.	.	.	4A-X\	.	.	4c\	.	.	.	.	.
.	.	.	4.G\)	.	<	4.Bn\)	.	<	8f\L]	.	.
.	.	.	.	.	.	.	.	.	8en\	.	.
8D/]	.	.	.	.	.	.	.	.	8g\J)	.	<
8D/	.	.	8G\	-ny	.	8B\	.	.	8f\	-mny	.
=23	=23	=23	=23	=23	=23	=23	=23	=23	=23	=23	=23
4C/	.	.	4G\	mąż	.	4c\	.	.	4e-X\	mąż	.
4C/	.	.	4G-X\	jak	.	4B-\	.	.	4e-\	jak	.
4.C/	.	[	4.F\	gra-	[	4.An/	.	[	(8e-\L	gra-	.
.	.	.	.	.	.	.	.	.	8d\	.	.
.	.	.	.	.	.	.	.	.	8f\J)	.	[
8C/	.	.	8F\	-nit	.	8A/	.	.	8e-\	-nit	.
!!LO:PB:g=original
=24	=24	=24	=24	=24	=24	=24	=24	=24	=24	=24	=24
8BB-/	.	.	8F\	stał,	.	8B-/	.	.	8d\	stał,	.
!LO:TX:b:i:t=dolce	!	!	!LO:TX:a:i:t=dolce	!	!	!LO:TX:b:i:t=dolce	!	!	!LO:TX:a:i:t=dolce	!	!
8B-\	.	.	8En\	Roz-	.	8G/	.	.	8d-X\	Roz-	.
8B-\	.	.	8E\	-pra-	.	8G/	.	.	8d-\	-pra-	.
8B-\	.	.	8E\	-szał	.	8G/	.	.	8d-\	-szał	.
4A-\	.	.	4F\	ma-	.	4A-/	.	.	4c\	ma-	.
8.F\	.	.	8.A-\	-ry	.	8.c\	.	.	8.e-\	-ry	.
16F\	.	.	16A-\	i	.	16Bn\	.	.	16d-\	i	.
=25	=25	=25	=25	=25	=25	=25	=25	=25	=25	=25	=25
4C/	.	.	4A-\	cie-	.	4d\	.	.	4f\	cie-	.
2C/	.	.	2G\	-nie	.	2c\	.	.	2e-\	-nie	.
!	!	!LO:DY:rj	!	!	!LO:DY:rj	!	!	!LO:DY:rj	!	!	!LO:DY:rj
4C/	.	f	4G\	Nie-	f	4c\	.	f	4e-\	Nie-	f
=26	=26	=26	=26	=26	=26	=26	=26	=26	=26	=26	=26
(2.C/	.	.	(4G\	-złom-	.	(4c\	.	.	[2e-\	-złom-	.
.	.	.	4G-X\	.	.	4B-\	.	.	.	.	.
!	!	!LO:HP:a	!	!	!LO:HP:a	!	!	!	!	!	!
.	.	<	4.F\)	.	<	4.An/)	.	<	8e-\L]	.	<
.	.	.	.	.	.	.	.	.	8dn\	.	.
8C-X/)	.	.	.	.	.	.	.	.	8f\J	.	.
8C-/	.	[[	8F#X\	-ny	[[	8A/	.	[[	8e-\	-ny	[[
=27	=27	=27	=27	=27	=27	=27	=27	=27	=27	=27	=27
!	!	!LO:HP:a	!	!	!LO:HP:a	!	!	!	!	!	!
[2BB-/	.	>	[2Gn\	mąż	>	[2B-\	.	>	[2e-\	mąż	>
8BB-/]	.	]	8G\]	.	]	8B-\]	.	]	8e-\]	.	]
8r	.	.	8r	.	.	8r	.	.	8r	.	.
!	!	!LO:DY:rj	!	!	!LO:DY:rj	!	!	!LO:DY:rj	!	!	!LO:DY:rj
4BB-/	.	p	8B-\L	Roz-	p	4B-\	.	p	4B-\	Roz-	p
.	.	.	8A-\J	.	.	.	.	.	.	.	.
!!LO:LB:g=original
=28	=28	=28	=28	=28	=28	=28	=28	=28	=28	=28	=28
!	!	!LO:HP:a	!	!	!LO:HP:a	!	!	!LO:HP:a	!	!	!LO:HP:a
2.BB-/	.	>	4G\	-pra-	>	4B-\	.	>	4B-\	-pra-	>
!	!	!	!LO:TX:a:i:t=e piu lento.	!	!	!LO:TX:a:i:t=e piu lento.	!	!	!LO:TX:a:i:t=e piu lento.	!	!
.	.	.	4F\	-szał	.	4B-\	.	.	4d-X\	-szał	.
.	.	.	4E-\	ma-	.	4B-\	.	.	4c\	ma-	.
!LO:TX:a:t=e piu lento.	!	!	!	!	!	!	!	!	!	!	!
4BB-/	.	.	8F\	-ry	.	8B-\	.	.	8dn\	-ry	.
.	.	.	8G\	i	.	8B-\	.	.	8d\	i	.
=29	=29	=29	=29	=29	=29	=29	=29	=29	=29	=29	=29
2E-\	.	.	2A-\	cie-	.	2B-\	.	.	2f\	cie-	.
4E-;\	.	>]	4G;\	-nie	>]	4B-;\	.	>]	4e-;\	-nie	> ]
=30||	=30||	=30||	=30||	=30||	=30||	=30||	=30||	=30||	=30||	=30||	=30||
!!!OMD: Andante non troppo lento.
*k[b-e-a-d-]	*	*	*k[b-e-a-d-]	*	*	*k[b-e-a-d-]	*	*	*k[b-e-a-d-]	*	*
*M9/8	*	*	*M9/8	*	*	*M9/8	*	*	*M9/8	*	*
*^	*	*	*	*	*	*	*	*	*	*	*
!	!	!	!LO:DY:a	!	!	!	!	!	!	!	!	!
2.AA-/	1ryy	Z dzie-	pp	4.r	.	.	4.r	.	.	4.r	.	.
!	!	!	!	!	!	!	!	!	!LO:DY:rj	!	!	!LO:DY:rj
.	.	.	.	4.r	.	.	4.A-/	.	pp	4.c\	Z dzie-	pp
!	!	!	!	!	!	!LO:DY:rj	!	!	!	!	!	!
4AA-/	.	-jów	.	4.E-^\	Z dzie-	p	4A-/	.	.	4c\	-jów	.
8E-/	8AA-\	skar-	.	.	.	.	8A-/	.	.	8c\	skar-	.
=31	=31	=31	=31	=31	=31	=31	=31	=31	=31	=31	=31	=31
2.E-/	2.AA-\	-bni-	.	8E-\	-jów	.	4.c\	.	.	4.e-\	-bni-	.
.	.	.	.	8F\	skar-	.	.	.	.	.	.	.
.	.	.	.	8G\	-bni-	.	.	.	.	.	.	.
.	.	.	.	8B-\	-cy	.	[4.c\	.	.	[4.e-\	-cy	.
.	.	.	.	8A-\	z pra-	.	.	.	.	.	.	.
!	!	!	!	!	!	!LO:HP:a	!	!	!	!	!	!
.	.	.	.	8G\	-oj-	<	.	.	.	.	.	.
4.E-/	4.AA-\	-cy	.	8A-\	-ców	.	8c\]	.	.	8e-\]	.	.
.	.	.	.	8B-\	spuś-	.	8r	.	.	8r	.	.
.	.	.	.	8c\	-ci-	[	8c\	.	.	8e-\	z skar-	.
!!LO:LB:g=original
=32	=32	=32	=32	=32	=32	=32	=32	=32	=32	=32	=32	=32
!	!	!	!	!	!	!LO:HP:a	!LO:TX:a:i:t=dolce	!	!	!LO:TX:a:i:t=dolce	!	!
2.E-/	2.AA-\	z dzie-	.	(4.c\	-zny,	>	[4.c\	.	.	[4.e-\	-ni-	.
.	.	.	.	4E-\)	.	.	8c\]	.	.	8e-\]	.	.
.	.	.	.	.	.	]	8Bn\	.	.	8dn\	-cy	.
.	.	.	.	8r	.	.	8B-X\	.	.	8d-X\	pra-	.
4E-/	4AA-\	-jów	.	[4.E-^\	Czer-	.	8A-\	.	.	8c\	-oj-	.
.	.	.	.	.	.	.	8B-\	.	.	8d-\	-ców	.
8E-/	8AA-\	pra-	.	.	.	.	[8c\	.	.	8e-\	spu-	.
=33	=33	=33	=33	=33	=33	=33	=33	=33	=33	=33	=33	=33
4.E-/	4.AA-\	-oj-	.	8E-\]	.	.	4.c\]	.	.	4.e-\	-ści-	.
.	.	.	.	8F\	-pał	.	.	.	.	.	.	.
.	.	.	.	8G\	poś-	.	.	.	.	.	.	.
[4.E-/	[4.AA-\	-ców	.	8B-\	-wię-	.	[4.c\	.	.	[4.e-\	-zny	.
.	.	.	.	8A-\	-ceń	.	.	.	.	.	.	.
!	!	!	!	!	!	!LO:HP:a	!	!	!	!	!	!
.	.	.	.	16G\	wzo-	<	.	.	.	.	.	.
.	.	.	.	16G\	-ry	.	.	.	.	.	.	.
4E-/]	4AA-\]	.	.	8A-\L	wie-	.	8c\]	.	.	8e-\]	.	.
.	.	.	.	8d-\J	.	.	8r	.	.	8r	.	.
8G-X/	8AAn\	po-	.	8c\	-ko-	[	8c\	.	.	8e-\	po-	.
=34	=34	=34	=34	=34	=34	=34	=34	=34	=34	=34	=34	=34
!	!	!	!LO:HP:a	!	!	!	!	!	!	!	!	!
4.F/	4.BB-\	-świę-	<	4.c\	-pom-	.	[4.c\	.	.	[4.e-\	-świę-	.
(4F/	4.BB-\	-ceń	.	4F\	-ne	.	8c\L]	.	.	8e-\L]	.	.
.	.	.	.	.	.	.	8B-\J	.	.	8d-\J	.	.
8G-X/)	.	.	.	8r	.	.	8An/	.	<	8c\	-ceń	<
4F/	4BB-\	zbie-	.	[4.F\	pła-	.	8B-\L	.	.	8d-\L	czer-	.
.	.	.	[	.	.	.	8c\J	.	[	8e-\J	.	[
8F/	8BB-\	-rał	.	.	.	.	8d-\	.	.	8f\	-pał	.
!!LO:PB:g=original
=35	=35	=35	=35	=35	=35	=35	=35	=35	=35	=35	=35	=35
!	!	!	!LO:HP:a	!	!	!	!	!	!	!	!	!
4.F/	4.BB-\	wzo-	>	8F\]	.	.	4.d-\	.	.	4.f\	wzo-	.
.	.	.	.	8G\	-kał	.	.	.	.	.	.	.
.	.	.	.	8A-\	na	.	.	.	.	.	.	.
4.F/	4.BB-\	-ry	]	8c\	gru-	.	4.d-\	.	.	4.f\	-ry	.
.	.	.	.	8B-\	-zach	.	.	.	.	.	.	.
.	.	.	.	8A-\	nie-	.	.	.	.	.	.	.
(<4.C/	4.C\	pła-	.	8G\	-szczę-	.	[4.c\	.	.	(4.en\	pła-	.
.	.	.	.	8F\	-snej	.	.	.	.	.	.	.
.	.	.	.	8G\	oj-	.	.	.	.	.	.	.
*v	*v	*	*	*	*	*	*	*	*	*	*	*
=36	=36	=36	=36	=36	=36	=36	=36	=36	=36	=36	=36
4.F\)	.	.	4.B-\	-czy-	.	4.c\]	.	.	4.g\)	.	.
4F\	-kał	.	4A-\	-zny	.	4.c\	.	<	4.f\	-kał	.
8E-\	na	.	8A-\	na	<	.	.	.	.	.	.
(4.Dn\	gru-	.	8c\	gru-	.	4.dn\	.	[[	4.f#X\	na	<[
.	.	.	8B-\	-zach	.	.	.	.	.	.	.
.	.	.	8A-\	nie-	.	.	.	.	.	.	.
=37	=37	=37	=37	=37	=37	=37	=37	=37	=37	=37	=37
2.G\)	.	.	[4.G\	-szczę-	[	8e-\	.	.	8g\	gru-	.
.	.	.	.	.	.	8dn\	.	<	8f\	-zach	.
.	.	.	.	.	.	8c\	.	.	8e-\	oj-	.
.	.	.	8G\]	.	.	4e-\	.	.	([4.g\	-czy-	.
.	.	.	8c\	-snej	.	.	.	.	.	.	.
.	.	.	8e-\	oj-	.	8c\	.	[	.	.	.
[4.G\	-zach	> ]	4.dn\	-czy-	.	8Bn/L	.	.	4g\]	.	.
.	.	.	.	.	.	8An/	.	.	.	.	.
.	.	.	.	.	.	8B/J	.	.	8f\)	.	.
!!LO:LB:g=original
=38	=38	=38	=38	=38	=38	=38	=38	=38	=38	=38	=38
!	!	!	!	!	!LO:HP:a	!	!	!	!	!	!
8G\L]	.	<	[4.c\	-zny	>	[4.c\	.	>	[4.e-\	-zny	>
!LO:TX:a:i:t=poco marcato	!	!	!	!	!	!	!	!	!	!	!
8B-\J	.	[	.	.	.	.	.	.	.	.	.
8A-\	nie-	.	.	.	.	.	.	.	.	.	.
8G\	-szczę-	.	8c\]	.	]	8c\]	.	]	8e-\]	.	]
8E-\	-snej	.	8r	.	.	8r	.	.	8r	.	.
8Dn\	oj-	.	8r	.	.	8r	.	.	8r	.	.
!	!	!LO:HP:a	!	!	!	!	!	!	!	!	!
(4C/	-czy-	>	4.r	.	.	4.r	.	.	4.r	.	.
8BB-/)	.	]]	.	.	.	.	.	.	.	.	.
=39	=39	=39	=39	=39	=39	=39	=39	=39	=39	=39	=39
!	!	!LO:DY:a	!	!	!	!	!	!	!	!	!
4.AA-/	-zny	pp	4.r	.	.	4.r	.	.	4.r	.	.
!	!	!	!	!	!	!	!	!LO:DY:rj	!	!	!LO:DY:rj
4.AA-/	pła-	.	4.r	.	.	4.A-/	.	pp	4.c\	Pła-	pp
!	!	!	!	!	!LO:DY:a:rj	!	!	!	!	!	!
4AA-/	-kał	.	[4.E-\	Pła-	p	4A-/	.	.	4c\	-kał	.
8E-/ 8AA-/	na	.	.	.	.	8A-/	.	.	8c\	na	.
=40	=40	=40	=40	=40	=40	=40	=40	=40	=40	=40	=40
4.E-/ 4.AA-/	gru-	.	8E-\]	.	.	4.c\	.	.	4.e-\	gru-	.
.	.	.	8F\	-kał	.	.	.	.	.	.	.
.	.	.	8G\	na	.	.	.	.	.	.	.
[4.E-/ [4.AA-/	-zach	.	8B-\	gru-	.	4.c\	.	.	[4.e-\	-zach	.
!	!	!	!LO:SIC:l:v:s=-zach	!	!	!	!	!	!	!	!
.	.	.	8A-\	-zał	.	.	.	.	.	.	.
.	.	.	8G\	nie-	.	.	.	.	.	.	.
!	!	!	!	!	!LO:HP:a	!	!	!	!	!	!
8E-/] 8AA-/]	.	.	8A-\	-szczę-	<	8c\	.	.	8e-\]	.	.
8r	.	.	8B-\	-snej	.	8r	.	.	8r	.	.
8E-/ 8AA-/	nie-	.	8c\	oj-	[[	8c\	.	.	8e-\	na	.
!!LO:LB:g=original
=41	=41	=41	=41	=41	=41	=41	=41	=41	=41	=41	=41
!	!	!	!	!	!	!LO:TX:a:i:t=dolce	!	!	!LO:TX:a:i:t=dolce	!	!
4.E-/ 4.AA-/	-szczę-	.	4.c\	-czyz-	.	[4.c\	.	.	[4.e-\	gru-	.
[4.E-/ [4.AA-/	-snej	.	4E-\	-ny	.	8c\]	.	.	8e-\]	.	.
.	.	.	.	.	.	8Bn\	.	.	8dn\	-zach	.
.	.	.	8r	.	.	8B-X\	.	.	8d-X\	nie-	.
4E-/] 4AA-/]	.	.	[4.E-\	Lecz	.	8A-\	.	.	8c\	-szczę-	.
.	.	.	.	.	.	8B-\	.	.	8d-\	-snej	.
8E-/ 8AA-/	oj-	.	.	.	.	8c\	.	.	8e-\	oj-	.
=42	=42	=42	=42	=42	=42	=42	=42	=42	=42	=42	=42
4.E-/ 4.AA-/	-czy-	.	8E-\]	.	.	4.c\	.	.	4.e-\	-czy-	.
.	.	.	8F\	po-	.	.	.	.	.	.	.
.	.	.	8G\	-ko-	.	.	.	.	.	.	.
[4.E-/ [4.AA-/	-zny	.	8B-\	-le-	.	[4.c\	.	.	[4.e-\	-zny	.
.	.	.	8A-\	-nia	.	.	.	.	.	.	.
.	.	.	8G\	har-	.	.	.	.	.	.	.
4E-/] 4AA-/]	.	.	8A-\	-to-	.	8c\]	.	.	8e-\]	.	.
.	.	.	8d-\	-wał	.	8r	.	.	8r	.	.
8G-X/ 8AAn/	A	.	8c\	po-	.	8c\	.	.	8e-\	A	.
=43	=43	=43	=43	=43	=43	=43	=43	=43	=43	=43	=43
*^	*	*	*	*	*	*	*	*	*	*	*
4.F/	4.BB-\	kie-	.	4.c\	-to-	.	[4.c\	.	.	[4.e-\	kie-	.
(4F/	4.BB-\	-dy	.	4F\	-mne	.	8c\L]	.	.	8e-\L]	.	.
.	.	.	.	.	.	.	8B-\J	.	.	8d-\J	.	.
!	!	!	!	!	!	!	!	!	!LO:HP:a	!	!	!LO:HP:a
8G-X/)	.	.	.	8r	.	.	8An\	.	<	8c\	-dy	<
4.F/	4.BB-\	wzbie-	.	[4.F\	A	.	8B-\	.	.	8d-\	ję-	.
.	.	.	.	.	.	.	8c\	.	.	8e-\	-kiem	.
.	.	.	.	.	.	.	8d-\	.	[	8f\	wzbie-	[
!!LO:PB:g=original
=44	=44	=44	=44	=44	=44	=44	=44	=44	=44	=44	=44	=44
!	!	!	!	!	!	!	!	!	!LO:HP:a	!	!	!LO:HP:a
4.F/	4.BB-\	-ra-	.	8F\]	.	.	4.d-\	.	>	4.f\	-ra-	>
.	.	.	.	8G\	kie-	.	.	.	.	.	.	.
.	.	.	.	8A-\	-dy	.	.	.	.	.	.	.
4.F/	4.BB-\	-ło	.	8c\	ję-	.	4.d-\	.	]	4.f\	-ło	]
.	.	.	.	8B-\	-kiem	.	.	.	.	.	.	.
.	.	.	.	8A-\	wzbie-	.	.	.	.	.	.	.
4.C/	4.C\	mu	.	8G\	-ra-	.	4.c\	.	.	4.en\	mu	.
.	.	.	.	8F\	-ło	.	.	.	.	.	.	.
.	.	.	.	8G\	mu	.	.	.	.	.	.	.
*v	*v	*	*	*	*	*	*	*	*	*	*	*
=45	=45	=45	=45	=45	=45	=45	=45	=45	=45	=45	=45
4.F\	ser-	.	4.B-\	ser-	.	4.c\	.	.	4.g\	ser-	.
(4F\	-ce	.	4.A-\	-ce	.	4.c\	.	.	4.f\	-ce	.
8E-\)	.	.	.	.	.	.	.	.	.	.	.
4.Dn\	nat-	.	8A-\	sło-	.	(4c\	.	.	4.f\	Nat-	.
.	.	.	8G\	-wem	.	.	.	.	.	.	.
.	.	.	8A-\	nat-	.	8Bn\)	.	.	.	.	.
=46	=46	=46	=46	=46	=46	=46	=46	=46	=46	=46	=46
!	!	!	!LO:TX:a:i:t=espr. molto.	!	!	!	!	!	!	!	!
4.E-\	-chnio-	.	[4.e-\	-chnio-	.	4.c\	.	.	4.a-\	-chnio-	.
4.E-\	-nem	.	8e-\L]	.	.	4.c\	.	.	4.e-\	-nem	.
.	.	.	8c\J	.	.	.	.	.	.	.	.
.	.	.	8A-\	-nem	.	.	.	.	.	.	.
!	!	!	!	!	!	!	!	!	!LO:N:vis=4.	!	!
4E-\	sło-	.	8G\L	ko-	.	4c\	.	.	4e-\	sło-	.
.	.	.	8A-\J	.	.	.	.	.	.	.	.
8E-\	-wem	.	8F\	-ił	.	8c\	.	.	8e-\	-wem	.
!!LO:LB:g=original
=47	=47	=47	=47	=47	=47	=47	=47	=47	=47	=47	=47
2.E-\	ko-	.	[4.E-\	krwa-	.	(8d-\L	.	.	(4.e-\	ko-	.
.	.	.	.	.	.	8c\	.	.	.	.	.
.	.	.	.	.	.	8B-\J	.	.	.	.	.
!	!	!LO:HP:a	!	!	!	!	!	!	!	!	!
.	.	>	4E-\]	.	>	8A-/L	.	.	4.f\)	.	>
.	.	.	.	.	.	8F/J)	.	>	.	.	.
.	.	.	8d-\	-we	.	8G/	.	.	.	.	.
4.E-\	-ił	]	(4c\	ra-	]	4e-\	.	.	4.g\	-ił	]]
.	.	.	8B-\)	.	.	8d-\	.	]]	.	.	.
=48	=48	=48	=48	=48	=48	=48	=48	=48	=48	=48	=48
2.AA-/	ra-	.	4.A-\	-ny	.	2.c\	.	.	4.a-\	ra-	.
!	!	!	!	!	!LO:HP:a	!	!	!	!	!	!
.	.	.	4.E-\	A	<	.	.	.	8a-\L	.	.
.	.	.	.	.	.	.	.	.	8g\	.	.
.	.	.	.	.	.	.	.	.	8f\J	.	.
4AA-/	-ny	.	8E-\L	kie-	.	4c\	.	.	4e-\	-ny	.
.	.	.	8F\	.	.	.	.	.	.	.	.
8AAn/	A	.	8G-X\J	.	[[	8c\	.	.	8e-\	A	.
=49	=49	=49	=49	=49	=49	=49	=49	=49	=49	=49	=49
4.BB-/	kie-	.	4.F\	-dy	.	4.c\	.	.	4.e-\	kie-	.
[4.BB-/	-dy	.	4.F\	ję-	.	8c\L	.	.	8e-\L	.	.
.	.	.	.	.	.	8B-\J	.	.	8d-\J	.	.
!	!	!LO:HP:a	!	!	!LO:HP:a	!	!	!LO:HP:a	!	!	!LO:HP:a
.	.	<	.	.	<	8An\	.	<	8c\	-dy	<
4BB-/]	wzbie	.	4F\	-kiem	.	8B-\	.	.	8d-\	ję-	.
.	.	.	.	.	.	8c\	.	.	8e-\	-kiem	.
8BB-/	wzbie-	[	8B-\	wzbie-	[	8d-\	.	[	8f\	wzbie-	[
!!LO:LB:g=original
=50	=50	=50	=50	=50	=50	=50	=50	=50	=50	=50	=50
4.C/	-ra-	.	4.B-\	-ra-	.	4.d-\	.	.	4.f\	-ra-	.
4.C/	-ło	.	8B-\L	-ło	.	4d-\	.	.	4f\	-ło	.
.	.	.	8A-\J	.	.	.	.	.	.	.	.
.	.	.	8G\	mu	.	8c\	.	.	8en\	mu	.
!	!	!LO:DY:rj	!	!	!LO:DY:rj	!	!	!LO:DY:rj	!	!	!
(4.D-/	ser-	f	[4.A-\	ser-	f	(4.B-\	ser-	f	(4g\	ser-	f
.	.	.	.	.	.	.	.	.	8f\	.	.
=51	=51	=51	=51	=51	=51	=51	=51	=51	=51	=51	=51
!LO:N:vis=4	!	!	!	!	!	!	!	!	!	!	!
4.E-\)	.	.	4.A-\]	.	.	[4.c\	.	.	4.e-\)	.	.
[4.E-\	-ce	>	[4.E-\	-ce	>	8c\])	.	.	[4.e-\	-ce	>
.	.	.	.	.	.	8A-/	-ce	>	.	.	.
.	.	.	.	.	.	8F/	Nat-	.	.	.	.
4E-\]	.	.	4E-\]	.	.	(4G/	-chnio-	.	4e-\]	.	.
8E-\	Natch-	]	8E-\	Natch-	]]	8B-/)	.	]]	8d-\	Nat-	]]
=52	=52	=52	=52	=52	=52	=52	=52	=52	=52	=52	=52
!LO:TX:a:i:t=dolce	!	!	!LO:TX:a:i:t=dolce	!	!	!LO:TX:a:i:t=dolce	!	!	!LO:TX:a:i:t=dolce	!	!
4.AA-/	-nio-	.	(4E-\	-nio-	.	4A-/	-nem	.	4.c\	-chnio-	.
.	.	.	8F\)	.	.	8c\L	sło-	.	.	.	.
4.AA-/	-nem	.	4.E-\	-nem	.	8A-\J	.	.	4.e-\	-nem	.
!	!	!	!	!	!	!LO:N:vis=8	!	!	!	!	!
.	.	.	.	.	.	4F/	-wem	.	.	.	.
4AA-/	sło-	.	4E-\	sło-	.	4G/	ko-	.	4e-\	sło-	.
8AA-/	-wem	.	8E-\	-wem	.	8d-\	-ił	.	8e-\	-wem	.
!!LO:PB:g=original
=53	=53	=53	=53	=53	=53	=53	=53	=53	=53	=53	=53
2.AA-/	ko-	.	(4E-\	krwa-	.	[4.c\	krwa-	.	[4.e-\	krwa-	.
.	.	.	8F\	.	.	.	.	.	.	.	.
.	.	.	4E-\)	.	.	8c\L]	.	.	4e-\]	.	.
.	.	.	.	.	.	8A-\J	.	.	.	.	.
.	.	.	8E-\	-we	.	8F/	-we	.	8e-\	-we	.
4.AA-/	-ił	.	4E-\	ko-	.	4G/	ko-	.	4e-\	ko-	.
.	.	.	8E-\	-ił	.	8B-/	-ił	.	8d-\	-ił	.
=54	=54	=54	=54	=54	=54	=54	=54	=54	=54	=54	=54
[2.AA-/	ra-	.	4E-\	krwa-	.	[2.A-/	ra-	.	[2.c\	ra-	.
.	.	.	8F\	-we	.	.	.	.	.	.	.
.	.	.	4E-\	ko-	.	.	.	.	.	.	.
.	.	.	8F\	-ił	.	.	.	.	.	.	.
4.AA-/]	.	.	(4E-\	ra-	.	4.A-/]	.	.	4.c\]	.	.
.	.	.	8F\)	.	.	.	.	.	.	.	.
=55	=55	=55	=55	=55	=55	=55	=55	=55	=55	=55	=55
!	!	!LO:DY:a	!	!	!	!	!	!	!	!	!
[2.AA-/	-ny.	ppp	[2.E-\	-ny	ppp	[2.A-/	-ny	ppp	[2.c\	-ny	ppp
4.AA-/]	.	.	4.E-\]	.	.	4.A-/]	.	.	4.c\]	.	.
=56||	=56||	=56||	=56||	=56||	=56||	=56||	=56||	=56||	=56||	=56||	=56||
!!!OMD: Tempo Imo
*k[b-e-a-]	*	*	*k[b-e-a-]	*	*	*k[b-e-a-]	*	*	*k[b-e-a-]	*	*
*M4/4	*	*	*M4/4	*	*	*M4/4	*	*	*M4/4	*	*
*met(c)	*	*	*met(c)	*	*	*met(c)	*	*	*met(c)	*	*
!	!	!LO:DY:rj	!	!	!LO:DY:rj	!	!	!	!	!	!
8C/L	.	f	8C/L	W ro-	f	4r	.	.	4r	.	.
8Dn/J	.	.	8Dn/J	.	.	.	.	.	.	.	.
!!LO:LB:g=original
=57	=57	=57	=57	=57	=57	=57	=57	=57	=57	=57	=57
4E-\	.	.	4E-\	-zu-	.	4r	.	.	4r	.	.
4E-\	.	.	4E-\	-mów	.	8G/L	.	.	8G/L	W ro-	.
.	.	.	.	.	.	8An/J	.	.	8An/J	.	.
4E-\	.	.	4E-\	wal-	.	4B-\	.	.	4B-\	-zu-	.
8D\	.	.	8D\	-ce	.	4B-\	.	.	4B-\	-mów	.
8En\	.	.	8En\	i	.	.	.	.	.	.	.
=58	=58	=58	=58	=58	=58	=58	=58	=58	=58	=58	=58
4F\	.	.	4F\	czy-	.	4B-\	.	.	4B-\	wal-	.
8F\	.	.	8F\	-nów	.	8A-X/	.	.	8A-X/	-ce	.
8F\	.	.	8F\	roz-	.	8B-/	.	.	8B-/	i	.
4F\	.	.	4F\	-ter-	.	4c\	.	.	4c\	czy-	.
8E-\	.	.	8E-\	-ce	.	8c\	.	.	8c\	-nów	.
8F\	.	.	8F\	Mi-	.	8c\	.	.	8c\	roz-	.
=59	=59	=59	=59	=59	=59	=59	=59	=59	=59	=59	=59
[2G\	.	.	[2G\	-ło-	.	4c\	.	.	4d\	-ter-	.
.	.	.	.	.	.	8B-\	.	.	8B-\	-ce	.
.	.	.	.	.	.	8c\	.	.	8c\	Mi-	.
8G\]	.	.	8G\]	.	.	[2d-X\	.	.	[2d-X\	-ło-	.
8G\	.	.	8G\	-ścią	.	.	.	.	.	.	.
8F\	.	.	8F\	sil-	.	.	.	.	.	.	.
8G\	.	.	8G\	-ny	.	.	.	.	.	.	.
!!LO:LB:g=original
=60	=60	=60	=60	=60	=60	=60	=60	=60	=60	=60	=60
[2A-\	.	<	[2A-\	W wie-	.	8d-\]	.	.	8d-\]	.	.
!	!	!	!	!	!	!	!	!	!LO:TX:t=P:problem=teskt przesunięty	!	!
.	.	.	.	.	<	8d-X\	.	<	8d-X\	ścią	<
.	.	.	.	.	.	8c\	.	.	8c\	sil-	.
.	.	.	.	.	.	8Bn\	.	.	8Bn\	-ny	.
8A-\]	.	.	8A-\]	.	.	8c\	.	.	8c\	w wie-	.
8A-\	.	.	8B-\	-rze	.	8dn\	.	.	8dn\	-rze	.
8A-\	.	[	8c\	nie-	[	8e-\	.	[	8e-\	nie-	[
8A-\	.	.	8c\	-za-	.	8d\	.	.	8f\	-za-	.
=61	=61	=61	=61	=61	=61	=61	=61	=61	=61	=61	=61
2G\	.	ff	2Bn\	-chwia-	ff	2d\	.	ff	2g\	-chwia-	ff
4G;\	.	.	4B;\	-ny	.	4d;\	.	.	4g;\	-ny	.
=62||	=62||	=62||	=62||	=62||	=62||	=62||	=62||	=62||	=62||	=62||	=62||
!!!OMD: Piu risoluto.
*M3/4	*	*	*M3/4	*	*	*M3/4	*	*	*M3/4	*	*
4G\	.	.	4G\	Sta-	.	4r	.	.	4r	.	.
=63	=63	=63	=63	=63	=63	=63	=63	=63	=63	=63	=63
(4.G\	.	.	(4.G\	-je-	.	2.r	.	.	2.r	.	.
8E-\	.	.	8E-\	.	.	.	.	.	.	.	.
8C/)	.	.	8C/)	.	.	.	.	.	.	.	.
8D/	.	.	8D/	-my	.	.	.	.	.	.	.
!!LO:PB:g=original
=64	=64	=64	=64	=64	=64	=64	=64	=64	=64	=64	=64
8.E-\	.	.	8.E-\	u	.	4r	.	.	4r	.	.
16F\	.	.	16F\	Twych	.	.	.	.	.	.	.
4G\	.	.	4G\	stóp	.	4r	.	.	4r	.	.
!	!	!LO:DY:rj	!	!	!LO:DY:rj	!	!	!LO:DY:rj	!	!	!LO:DY:rj
8B-\L	I	p	8B-\L	I	p	4B-\	.	p	4B-\	I	p
8A-\J	.	.	8A-\J	.	.	.	.	.	.	.	.
=65	=65	=65	=65	=65	=65	=65	=65	=65	=65	=65	=65
!	!	!LO:HP:a	!	!	!LO:HP:a	!	!	!LO:HP:a	!	!	!LO:HP:a
8G\	gło-	<	4.G\	gło-	<	4.B-\	.	<	4.e-\	gło-	<
8E-\	-sim	.	.	.	.	.	.	.	.	.	.
4.C/	Two-	.	.	.	.	.	.	.	.	.	.
.	.	.	8G\	-sim	.	8B-/	.	.	8d\	-sim	.
.	.	.	8F\	Two-	.	8An/	.	.	8f\	Two-	.
8C/	-ją	[	8F\	-ją	[	8A/	.	[	8e-\	-ją	[
=66	=66	=66	=66	=66	=66	=66	=66	=66	=66	=66	=66
2BB-/	cześć	.	2F\	cześć	.	2B-/	.	.	2d\	cześć	.
!	!	!LO:DY:rj	!	!	!LO:DY:rj	!	!	!	!	!	!
4B-\	.	f	4B-\	Sta-	f	4r	.	.	4r	.	.
=67	=67	=67	=67	=67	=67	=67	=67	=67	=67	=67	=67
(4.B-\	.	.	(4.B-\	-je-	.	2.r	.	.	2.r	.	.
8G\	.	.	8G\	.	.	.	.	.	.	.	.
8E-\)	.	.	8E-\)	.	.	.	.	.	.	.	.
8F\	.	.	8F\	-my	.	.	.	.	.	.	.
=68	=68	=68	=68	=68	=68	=68	=68	=68	=68	=68	=68
8.G\	.	.	8.G\	u	.	4r	.	.	4r	.	.
16A-\	.	.	16A-\	Twych	.	.	.	.	.	.	.
4c\	.	.	4c\	stóp	.	4r	.	.	4r	.	.
!	!	!LO:DY:rj	!	!	!LO:DY:rj	!	!	!LO:DY:rj	!	!	!LO:DY:rj
8c\L	I	p	8c\L	I	p	4c\	.	p	4c\	I	p
8B-\J	.	.	8B-\J	.	.	.	.	.	.	.	.
=69	=69	=69	=69	=69	=69	=69	=69	=69	=69	=69	=69
8A-\	Two-	.	4.A-\	gło-	.	4.c\	.	.	4.f\	gło-	.
!	!	!LO:HP:a	!	!	!LO:HP:a	!	!	!LO:HP:a	!	!	!LO:HP:a
8F\	-ją	<	.	.	<	.	.	<	.	.	<
4.D-X/	gło-	.	.	.	.	.	.	.	.	.	.
.	.	.	8A-\	-sim	.	8c\	.	.	8en\	-sim	.
.	.	.	8G\	Two-	.	8Bn\	.	.	8g\	Two-	.
8D-/	-sim	[[	8G\	-ją	[	8B\	.	[	8f\	-ją	[
!!LO:LB:g=original
=70	=70	=70	=70	=70	=70	=70	=70	=70	=70	=70	=70
2C/	cześć	.	2G\	cześć	.	2c\	.	.	2en\	cześć	.
!	!	!	!	!	!LO:DY:rj	!	!	!	!	!	!
4r	.	.	4c\	Nie	p	4r	.	.	4r	.	.
=71	=71	=71	=71	=71	=71	=71	=71	=71	=71	=71	=71
4r	.	.	(4.c\	zam-	.	8r	.	.	8r	.	.
!	!	!	!	!	!	!	!	!LO:DY:rj	!	!	!LO:DY:rj
.	.	.	.	.	.	8c\	.	p	8c\	Nie	p
4r	.	.	.	.	.	(4c\	.	<	(4c\	za-	<
.	.	.	8A-\L	.	.	.	.	.	.	.	.
8r	.	.	8F\J)	.	.	8.A-/)	.	[	8.f\)	.	[
8C/	Nie	.	8G\	-knie	.	.	.	.	.	.	.
.	.	.	.	.	.	16B-/	.	.	16en\	-mKnie	.
=72	=72	=72	=72	=72	=72	=72	=72	=72	=72	=72	=72
!	!	!LO:HP:a	!	!	!LO:HP:a	!	!	!	!	!	!
(8F\L	zam-	<	8A-\	te-	<	2c\	.	.	(4g\	grób	.
8G\J	.	.	8B-\	-go	.	.	.	.	.	.	.
8A-\)	-knie	.	4c\	grób	[	.	.	.	4f\)	.	.
8G\	.	[	.	.	.	.	.	.	.	.	.
8.B-\	te-	.	4c\	Kto	.	4r	.	.	4ryy	.	.
16A-\	-go	.	.	.	.	.	.	.	.	.	.
=73	=73	=73	=73	=73	=73	=73	=73	=73	=73	=73	=73
4A-\	grób	.	(4.c\	ser-	.	8r	.	.	8r	.	.
!	!	!	!	!	!	!	!	!LO:HP:a	!	!	!
.	.	.	.	.	.	8e-\	.	<	8e-\	Kto	.
!	!	!	!	!	!	!	!	!	!	!	!LO:HP:a
4r	.	.	.	.	.	(4e-\	.	.	(4e-\	ser-	<
.	.	.	8A-\	.	.	.	.	.	.	.	.
4r	.	.	8F\)	.	.	8.d-X\)	.	[	8.a-\)	.	[
.	.	.	8G\	-ca	.	.	.	.	.	.	.
.	.	.	.	.	.	16d-\	.	.	16f\	-ca	.
!!LO:LB:g=original
=74	=74	=74	=74	=74	=74	=74	=74	=74	=74	=74	=74
!	!	!	!	!	!LO:HP:a	!	!	!	!	!	!
8r	.	.	8A-\	u-	<	4c\	.	.	4e-\	wzniósł	.
!	!	!LO:HP:a	!	!	!	!	!	!	!	!	!
8E-\	kto	<	8B-\	-miał	.	.	.	.	.	.	.
8A-\	ser-	.	4c\	wznieść	[	4r	.	.	4r	.	.
8B-\	-ca	.	.	.	.	.	.	.	.	.	.
8.d-X\	u-	[	4r	.	.	4r	.	.	4r	.	.
16c\	-miał	.	.	.	.	.	.	.	.	.	.
=75	=75	=75	=75	=75	=75	=75	=75	=75	=75	=75	=75
8c\	wznieść	.	8r	.	.	2.r	.	.	2.r	.	.
8A-'\	.	.	8A-'\	Nie	.	.	.	.	.	.	.
!LO:TX:a:t=marcato	!	!	!LO:TX:a:t=marcato	!	!	!	!	!	!	!	!
8E-'\	.	.	8E-'\	zam-	.	.	.	.	.	.	.
8F'\	.	.	8F'\	-knie	.	.	.	.	.	.	.
8.G'\	.	.	8.G'\	te-	.	.	.	.	.	.	.
16A-'\	.	.	16A-'\	-go	.	.	.	.	.	.	.
=76	=76	=76	=76	=76	=76	=76	=76	=76	=76	=76	=76
4G\	.	.	4G\	grób	.	4r	.	.	4r	.	.
!	!	!LO:DY:rj	!	!	!LO:DY:rj	!	!	!LO:DY:rj	!	!	!LO:DY:rj
4C/	.	p	4G\	Nie	p	4B-\	.	p	8e-\L	Nie	p
.	.	.	.	.	.	.	.	.	8d\J	.	.
!	!	!	!	!	!LO:HP:a	!	!	!	!	!	!
8C/	.	.	8G\	zam-	<	8An/	.	.	8f\	zam-	.
!	!	!LO:HP:a	!	!	!	!	!	!LO:HP:a	!	!	!LO:HP:a
8C/	.	<	8G\	-knie	.	8A/	.	<	8e-\	-knie	<
=77	=77	=77	=77	=77	=77	=77	=77	=77	=77	=77	=77
8.D/	.	.	8.F#X\	te-	.	8.An/	.	.	8.d\	te-	.
16F#X\	.	.	16An\	-go	.	16A/	.	.	16d\	-go	.
4G\	.	.	4G\	grób	.	4B-/	.	.	4d\	grob	.
4G\	.	[[	4B-\	kto	[[	4c\	.	[[	4en\	kto	[[
!!LO:PB:g=original
=78	=78	=78	=78	=78	=78	=78	=78	=78	=78	=78	=78
!	!	!LO:DY:rj	!	!	!LO:DY:rj	!	!	!LO:DY:rj	!	!	!LO:DY:rj
(2F\	.	f	[2B-\	ser-	f	(2d\	.	f	(4.f\	ser-	f
.	.	.	.	.	.	.	.	.	8en\	.	.
8.En\)	.	.	8.B-\]	.	.	8.c#X\)	.	.	8.an\)	.	.
16E\	.	.	16B-\	-ca	.	16c#\	.	.	16g\	-ca	.
=79	=79	=79	=79	=79	=79	=79	=79	=79	=79	=79	=79
2F\	.	.	2B-\	u-	.	2d\	.	.	2f\	u-	.
4G\	.	.	4G\	-miał	.	4B-\	.	.	4d\	-miał	.
=80	=80	=80	=80	=80	=80	=80	=80	=80	=80	=80	=80
(2C/	.	.	(8G\L	ser-	.	(2B-\	.	.	(2e-\	ser-	.
.	.	.	8F#X\	.	.	.	.	.	.	.	.
.	.	.	8An\	.	.	.	.	.	.	.	.
.	.	.	8G\	.	.	.	.	.	.	.	.
!	!	!LO:HP:a	!	!	!LO:HP:a	!	!	!LO:HP:a	!	!	!LO:HP:a
8.F\)	.	>	8.Fn\J)	.	>	8.An/)	.	>	8.d\)	.	>
16F\	.	.	16E-\	-ca	.	16A/	.	.	16c\	-ca	.
=81	=81	=81	=81	=81	=81	=81	=81	=81	=81	=81	=81
2BB-/	.	]	2D\	wznieść	]	2F/	.	]	2B-\	wznieść	]
!	!	!LO:DY:rj	!	!	!LO:DY:rj	!	!	!	!	!	!
8BB-/L	.	f	8BB-/L	Choć	f	4r	.	.	4r	.	.
!	!	!	!LO:TX:a:t=poco stringendo	!	!	!	!	!	!	!	!
8C/J	.	.	8C/J	.	.	.	.	.	.	.	.
=82	=82	=82	=82	=82	=82	=82	=82	=82	=82	=82	=82
4.D-X\	.	.	4.D-X\	ży-	.	4r	.	.	4r	.	.
!	!	!	!	!	!	!	!	!LO:DY:rj	!LO:TX:a:t=poco stringendo	!	!LO:DY:rj
.	.	.	.	.	.	8F/L	.	f	8F/L	Choć	f
8D-\	.	.	8D-\	-wych	.	8G/J	.	.	8G/J	.	.
8C\	.	.	8C\	brak-	.	[4A-/	.	.	[4A-/	ży-	.
8Dn\	.	.	8Dn\	-ło	.	.	.	.	.	.	.
!!LO:LB:g=original
=83	=83	=83	=83	=83	=83	=83	=83	=83	=83	=83	=83
4.E-\	.	.	4.E-\	słow	.	8A-/]	.	.	8A-/]	.	.
.	.	.	.	.	.	8A-/	.	.	8A-/	-wych	.
.	.	.	.	.	.	8G/	.	.	8G/	brak-	.
8E-\	.	.	8E-\	Choć	.	8An/	.	.	8An/	-ło	.
8Dn\	.	.	8Dn\	ży-	.	[4B-/	.	.	[4B-/	słów	.
8En\	.	.	8En\	-wych	.	.	.	.	.	.	.
=84	=84	=84	=84	=84	=84	=84	=84	=84	=84	=84	=84
8F\	.	.	8F\	brak-	.	4B-/]	.	.	4B-/]	.	.
8F\	.	.	8F\	-ło	.	.	.	.	.	.	.
8F\	.	.	8F\	słów	.	8A-\L	.	.	8A-\L	Choć	.
8F\	.	.	8F\	Po-	.	8B-\J	.	.	8B-\J	.	.
8E-X\	.	.	8E-X\	-są-	.	8c\	.	.	8c\	brak-	.
8F\	.	.	8F\	-giem	.	8c\	.	.	8c\	-ło	.
=85	=85	=85	=85	=85	=85	=85	=85	=85	=85	=85	=85
!	!	!	!	!	!LO:HP:a	!	!	!	!	!	!LO:HP:a
[2G-X\	.	<	(4.G-X\	do	<	8c\	.	<	8c\	słów	<
.	.	.	.	.	.	8c\	.	.	8c\	Po-	.
.	.	.	.	.	.	8B-\	.	.	8B-\	-są-	.
.	.	.	8A-\L	.	.	8c\	.	.	8c\	-giem	.
8G-\]	.	.	8B-\J)	.	.	8d-X\	.	.	8d-X\	do	.
8G-\	.	[	8B-\	nas	[	8c\	.	[	8e-\	nas	[
=86	=86	=86	=86	=86	=86	=86	=86	=86	=86	=86	=86
2F\	.	ff	2An\	mów	ff	2c\	.	ff	2f\	mów	ff
!	!	!LO:DY:rj	!	!	!LO:DY:rj	!	!	!LO:DY:rj	!	!	!LO:DY:rj
8F\L	.	p	4A\	Sta-	p	4c\	.	p	4f\	Sta-	p
8E-\J	.	.	.	.	.	.	.	.	.	.	.
!!LO:LB:g=original
=87	=87	=87	=87	=87	=87	=87	=87	=87	=87	=87	=87
4.D\	.	.	(4B-\	-je-	.	(4d\	.	.	4.f\	-je-	.
.	.	.	8A-X\)	.	.	8c\)	.	.	.	.	.
!	!	!	!	!	!	!	!	!	!LO:TX:a:t=espress.	!	!
8D\	.	.	8A-\	-my	.	8c\	.	.	8en\	-my	.
8D\	.	.	8G\	u	.	8Bn\	.	.	8g\	u	.
8D\	.	.	8G\	Twych	.	8B\	.	.	8f\	Twych	.
=88	=88	=88	=88	=88	=88	=88	=88	=88	=88	=88	=88
4C/	.	.	4G\	stóp	.	4c\	.	.	4e-\	stóp	.
4C/	.	.	4G-X\	i	.	4B-\	.	.	8e-\L	i	.
.	.	.	.	.	.	.	.	.	8d\J	.	.
8C/	.	.	8F\	gło-	.	8An/	.	.	8f\	gło-	.
8C/	.	.	8F\	-sim	.	8A/	.	.	8e-\	-sim	.
=89	=89	=89	=89	=89	=89	=89	=89	=89	=89	=89	=89
2BB-/	.	.	2F\	Two-	.	2B-\	.	.	2d\	Two-	.
4BB-/	.	.	4En\	-ją	.	4B-\	.	.	4d-X\	-ją	.
=90	=90	=90	=90	=90	=90	=90	=90	=90	=90	=90	=90
(2F\	.	.	(8F\L	gło-	.	(8A-\L	.	.	(2c\	gło-	.
.	.	.	8G\J	.	.	8B-\J	.	.	.	.	.
.	.	.	4A-\	.	.	4c\	.	.	.	.	.
8.F\)	.	.	8.A-\)	.	.	8.Bn\)	.	.	8.e-\)	.	.
16F\	.	.	16A-\	-sim	.	16B\	.	.	16dn\	-sim	.
=91	=91	=91	=91	=91	=91	=91	=91	=91	=91	=91	=91
2C/	.	.	2G\	cześć	.	2c\	.	.	2e-\	cześć	.
!	!	!LO:DY:rj	!	!	!LO:DY:rj	!	!	!	!	!	!
8C/L	.	f	8C/L	w po-	f	4r	.	.	4r	.	.
8D/J	.	.	8D/J	.	.	.	.	.	.	.	.
!!LO:PB:g=original
=92	=92	=92	=92	=92	=92	=92	=92	=92	=92	=92	=92
4.E-\	.	.	4.E-\	-wo-	.	4r	.	.	4r	.	.
!	!	!	!	!	!	!	!	!LO:DY:rj	!	!	!LO:DY:rj
.	.	.	.	.	.	8G/L	.	f	8G/L	W po-	f
8E-\	.	.	8E-\	-dzi	.	8An/J	.	.	8An/J	.	.
8D\	.	.	8D\	mąk	.	[4B-/	.	.	[4B-/	-wo-	.
8En\	.	.	8En\	i	.	.	.	.	.	.	.
=93	=93	=93	=93	=93	=93	=93	=93	=93	=93	=93	=93
(4F\	.	.	[4F\	kar	.	8B-\]	.	.	8B-\]	.	.
!	!	!LO:HP:a	!	!	!LO:HP:a	!	!	!LO:HP:a	!	!	!LO:HP:a
.	.	<	.	.	<	8B-\	.	<	8B-\	-dzi	<
!LO:TX:a:i:t=e string	!	!	!LO:TX:a:i:t=e string	!	!	!LO:TX:a:i:t=e string	!	!	!LO:TX:a:i:t=e string	!	!
8F\)	.	.	8F\]	.	.	8A-\	.	.	8A-\	mąk	.
8F\	.	.	8F\	wytr-	.	8B-\	.	.	8B-\	i	.
8E-\	.	.	8E-\	-wa-	.	[4c\	.	.	[4c\	kar	.
8F\	.	.	8F\	-nia	.	.	.	.	.	.	.
=94	=94	=94	=94	=94	=94	=94	=94	=94	=94	=94	=94
4.G\	.	.	4.G\	dar	.	8c\]	.	.	8c\]	.	.
.	.	.	.	.	.	8c\	.	.	8c\	wy-	.
.	.	.	.	.	.	8B-\	.	.	8B-\	-trwa-	.
8G\	.	.	8G\	wytr-	.	8c\	.	.	8c\	-nia	.
8F\	.	.	8F\	-wa-	.	[4d-X\	.	.	[4d-X\	dar	.
8G\	.	.	8G\	-nia	.	.	.	.	.	.	.
=95	=95	=95	=95	=95	=95	=95	=95	=95	=95	=95	=95
[2A-\	.	.	(4.A-\	daj	.	8d-\]	.	.	8d-\]	.	.
!	!	!LO:HP:a	!	!	!	!	!	!LO:HP:a	!	!	!LO:HP:a
.	.	<	.	.	.	8d-X\	.	<	8d-X\	wytr-	<
!	!	!	!	!	!LO:HP:a	!	!	!	!	!	!
.	.	.	.	.	<	8c\	.	.	8c\	-wa-	.
.	.	.	8B-\	.	.	8dn\	.	.	8dn\	-nia	.
8A-\]	.	.	8c\)	.	.	8e-\	.	.	8e-\	daj	.
8A-\	.	[	8c\	nam	[	8d\	.	[	8f\	nam	[
!!LO:LB:g=original
=96	=96	=96	=96	=96	=96	=96	=96	=96	=96	=96	=96
!	!	!LO:DY:rj	!	!	!LO:DY:rj	!	!	!LO:DY:rj	!	!	!LO:DY:rj
2G\	.	ff	2Bn\	dar	ff	2d\	.	ff	2g\	dar	ff
!	!	!LO:DY:rj	!	!	!LO:DY:rj	!	!	!LO:DY:rj	!	!	!LO:DY:rj
8G\L	.	p	4B\	Sta-	p	4d\	.	p	4g\	Sta-	p
8F\J	.	.	.	.	.	.	.	.	.	.	.
=97	=97	=97	=97	=97	=97	=97	=97	=97	=97	=97	=97
4.E-\	.	.	(4c\	-je-	.	(4e-\	.	.	4.g\	-je-	.
.	.	.	8B-\)	.	.	8d-X\)	.	.	.	.	.
!	!	!	!	!	!	!	!	!	!LO:TX:a:t=espress.	!	!
8E-\	.	.	8B-\	-my	.	8d-\	.	.	8f\	-my	.
8E-\	.	.	8A-\	u	.	8c\	.	.	8a-\	u	.
8E-\	.	.	8A-\	Twych	.	8c\	.	.	8g\	Twych	.
=98	=98	=98	=98	=98	=98	=98	=98	=98	=98	=98	=98
2D/	.	.	(4A-\	stóp	.	(4c\	.	.	2f\	stop	.
.	.	.	4G\)	.	.	4Bn\)	.	.	.	.	.
4C/	.	.	4G\	Sta-	.	4c\	.	.	4e-\	sta-	.
=99	=99	=99	=99	=99	=99	=99	=99	=99	=99	=99	=99
4.C/	.	.	(4G\	-je-	.	(4c\	.	.	4.e-\	-je-	.
.	.	.	8G-X\)	.	.	8B-\)	.	.	.	.	.
!	!	!	!	!	!LO:HP:a	!	!	!LO:HP:a	!	!	!LO:HP:a
8C/	.	.	8G-\	-my	<	8B-\	.	<	8d\	-my	<
8C/	.	.	8F\	u	.	8An/	.	.	8f\	u	.
8C-X/	.	.	8F#X\	Twych	[[	8A/	.	[[	8e-\	Twych	[[
=100	=100	=100	=100	=100	=100	=100	=100	=100	=100	=100	=100
2BB-/	.	.	4G\	stóp	.	4B-\	.	.	4e-\	stóp	.
.	.	.	8r	.	.	8r	.	.	8r	.	.
!	!	!	!	!	!LO:DY:rj	!	!	!LO:DY:rj	!	!	!LO:DY:rj
!	!	!	!	!	!LO:HP:a	!	!	!LO:HP:a	!	!	!LO:HP:a
.	.	.	8E-\	I	ff <	8G'/	.	ff <	8B-'\	I	ff <
4BB-/	I	ff	8G\	gło-	.	8B-'\	.	.	8e-'\	gło-	.
.	.	.	8B-\	-sim	[[	8e-'\	.	[[	8g'\	-sim	[[
!!LO:LB:g=original
=101	=101	=101	=101	=101	=101	=101	=101	=101	=101	=101	=101
2BB-/	gło-	.	(2c\	Two-	.	(2e-\	.	.	(2a-\	Two-	.
4BB-/	-sim	.	8.B-\)	.	.	8.e-\)	.	.	8.g\)	.	.
.	.	.	16G\	-ją	.	16B-\	.	.	16e-\	-ją	.
=102	=102	=102	=102	=102	=102	=102	=102	=102	=102	=102	=102
!	!	!	!	!	!LO:HP:a	!	!	!LO:HP:a	!	!	!LO:HP:a
2BB-/	Two-	>	2B-\	gło-	>	2e-\	.	>	2g\	gło-	>
4BB-/	-ją	]	4A-\	-sim	]	4d\	.	]	4f\	-sim	]
=103	=103	=103	=103	=103	=103	=103	=103	=103	=103	=103	=103
4E-\	cześć	.	4G\	cześć	.	4e-\	cześć	.	4.e-\	cześć	.
!	!	!	!	!	!LO:DY:rj	!	!	!LO:DY:rj	!	!	!
!	!	!LO:DY:rj	!	!	!LO:HP:a	!	!	!	!	!	!
2E-\	Choć	p	2G\	Choć	p < [[	(4B-\	Choć	p	.	.	.
!	!	!LO:HP:a	!	!	!	!	!	!	!	!	!LO:DY:rj
.	.	<	.	.	.	.	.	.	8d\	Choć	p
!	!	!	!	!	!	!	!	!LO:HP:a	!	!	!LO:HP:a
.	.	.	.	.	.	4Bn\)	.	<	8f\	ży-	<
.	.	[[	.	.	.	.	.	.	8e-\	-wych	.
=104	=104	=104	=104	=104	=104	=104	=104	=104	=104	=104	=104
2E-\	brak-	.	4.A-\	ży-	.	2c\	brak-	[	2g\	brak-	[
!	!	!	!LO:TX:a:t=marcato	!	!	!	!	!	!	!	!
.	.	.	8G\	-wych	.	.	.	.	.	.	.
4E-\	-ło	.	8B-\	brak-	.	4d\	-ło	.	4f\	-ło	.
.	.	.	8A-\	-ło	.	.	.	.	.	.	.
=105	=105	=105	=105	=105	=105	=105	=105	=105	=105	=105	=105
4E-\	słów	.	4G\	słów	.	4e-\	słów	.	4.e-\	słow	.
2E-\	po-	.	2G\	Po-	.	(4B-\	Po-	.	.	.	.
!	!	!	!	!	!LO:HP:a	!	!	!LO:HP:a	!	!	!LO:HP:a
.	.	.	.	.	<	.	.	<	8d\	Po-	<
.	.	.	.	.	.	4Bn\)	.	.	8f\	-są-	.
.	.	.	.	.	.	.	.	.	8e-\	-giem	.
=106	=106	=106	=106	=106	=106	=106	=106	=106	=106	=106	=106
2E-\	-są-	.	4.A-\	-są-	[	2c\	-są-	[	2g\	do	[
.	.	.	8G\	-giem	.	.	.	.	.	.	.
!	!	!	!	!	!	!	!	!	!	!	!LO:HP:a
4E-\	-giem	.	8B-\	do	.	4d\	-giem	.	4f\	nas	> ]]
.	.	.	8A-\	nas	.	.	.	.	.	.	.
!!LO:PB:g=original
=107	=107	=107	=107	=107	=107	=107	=107	=107	=107	=107	=107
4E-\	mów	.	4G\	mów	.	4e-\	mów	.	4.e-\	mów	.
!	!	!LO:DY:rj	!	!	!LO:DY:rj	!	!	!LO:DY:rj	!	!	!LO:DY:rj
2E-\	Sta-	p	2G\	Sta-	p	2B-\	Sta-	p	.	.	p
.	.	.	.	.	.	.	.	.	8d\	Sta-	.
.	.	.	.	.	.	.	.	.	8f\	-je-	.
.	.	.	.	.	.	.	.	.	8e-\	-my	.
=108	=108	=108	=108	=108	=108	=108	=108	=108	=108	=108	=108
2E-\	-je-	.	2G\	-je-	.	4.B-\	-je-	.	2e-\	u	.
.	.	.	.	.	.	8An/	-my	.	.	.	.
4E-\	-my	.	4G\	my	.	8c\	u	.	4e-\	Twych	.
.	.	.	.	.	.	8B-\	twych	.	.	.	.
=109	=109	=109	=109	=109	=109	=109	=109	=109	=109	=109	=109
2E-\	u	.	4.G\	u	.	2B-\	stóp	.	2e-\	stóp	.
.	.	.	8F\	Twych	.	.	.	.	.	.	.
4E-\	Twych	.	8A-\	stóp	.	4B-\	I	.	4e-\	I	.
.	.	.	8G\	I	.	.	.	.	.	.	.
=110	=110	=110	=110	=110	=110	=110	=110	=110	=110	=110	=110
!	!	!LO:HP:a	!	!	!LO:HP:a	!	!	!LO:HP:a	!	!	!LO:HP:a
8E-\	stóp	<	2G\	gło-	<	2B-\	gło-	<	2e-\	gło-	<
8D\	I	.	.	.	.	.	.	.	.	.	.
8F\	Two-	.	.	.	.	.	.	.	.	.	.
8E-\	-ją	.	.	.	.	.	.	.	.	.	.
8B-\	gło-	.	4G\	-sim	[	4B-\	-sim	[	4e-\	-sim	[
8G\	-sim	[	.	.	.	.	.	.	.	.	.
=111	=111	=111	=111	=111	=111	=111	=111	=111	=111	=111	=111
!	!	!LO:HP:a	!	!	!LO:HP:a	!	!	!LO:HP:a	!	!	!LO:HP:a
2.E-;\	cześć	>]	2.G;\	cześć	>]	2.B-;\	cześć	>]	2.e-;\	cześć	>]
==	==	==	==	==	==	==	==	==	==	==	==
*-	*-	*-	*-	*-	*-	*-	*-	*-	*-	*-	*-
!!!system-decoration: ({<g1>}{<g2>})
!!!ENC: Filip Voros
!!!END: 2022-02-18
!!!RDF**dynam: p = "p."
!!!RDF**dynam: pp = "pp."
!!!RDF**dynam: mf = "mf."
!!!RDF**dynam: ppp = "ppp."
!!!RDF**dynam: f = "f."
!!!RDF**dynam: ff = "ff."
!!!RDF**dynam: > = "dim."
!!!RDF**kern: Z = caesura
!!!EED: Andrzej Borzym
!!!EST: 2022-02-19
!!!RDF**kern: > = above
!!!RDF**kern: < = below
